X:1
T:Simple scale
C:Unknown
M:4/4
L:1/4
Q:1/4=120
K:C
C D E F | G A B c | c B A G | F E D C |
^C^D^E^F|^G^A^B^c |^c^B^A^G |^F^E^D^C |
_C_D_E_F|_G_A_B_c |_c_B_A_G |_F_E_D_C |